X: 58
T:Galway Farmer
R:Reel
C:Steve Knightly
S:Charles de Lint
Z:Added by Alf Warnock
M:4/4
L:1/8
K:G
D|E2EF EDB,D|EDEF GFED|D2AB AFED|dA (3Bcd AFED|
E2EF EDB,D|EDEF GFED|D2AB AFED|E4 E3:|
D|E2BE cEBE|E2BE cEBE|E2cE dEcE|E2cE dEcE|
d3B AFED|AGAB AFED|B2 (3BBB AGFG|E4 E3:|

